assets/img/common/banner-bg-left.svg

<svg width="184" height="333" viewBox="0 0 184 333" fill="none" xmlns="http://www.w3.org/2000/svg">
<g clip-path="url(#clip0_2728_862)">
<path fill-rule="evenodd" clip-rule="evenodd" d="M-9.42483 159.621C-6.98083 120.008 13.2572 85.0161 47.6802 68.9211C48.0752 68.7021 48.4162 68.5981 48.8012 68.3661L49.0872 68.2651H49.1422L49.3122 68.1611L49.6462 68.0331C75.5832 56.5671 104.635 57.8961 131.188 69.2441H131.294L132.749 69.9241L132.978 70.0281C133.421 70.2371 133.874 70.4651 134.372 70.6741L134.651 70.8021L135.99 71.4581H136.161C136.665 71.7951 137.108 72.0031 137.609 72.2321L137.78 72.3331C139.791 73.3261 141.754 74.3211 143.703 75.4281L143.99 75.6371C144.317 75.7651 144.661 75.9841 144.988 76.2161C145.217 76.3071 145.438 76.4251 145.66 76.5151C145.936 76.7471 146.229 76.8621 146.501 77.0941C146.774 77.1851 147.006 77.4071 147.279 77.5311C147.555 77.7401 147.844 77.8541 148.12 78.0861C148.342 78.1771 148.618 78.4091 148.843 78.5231C149.119 78.7321 149.405 78.8461 149.678 79.0651C149.957 79.1691 150.182 79.3981 150.458 79.6071C150.752 79.7451 150.973 79.9541 151.249 80.0441C151.522 80.2761 151.805 80.3911 152.077 80.6231L152.814 81.1651C153.086 81.2691 153.369 81.5011 153.642 81.7101C153.928 81.8241 154.153 82.0571 154.378 82.1471C154.659 82.3949 154.958 82.6222 155.271 82.8271C155.492 83.0361 155.714 83.1401 155.939 83.2781C156.218 83.4871 156.494 83.7151 156.839 83.9241C157.06 84.1561 157.272 84.2601 157.493 84.4691C157.837 84.6981 158.113 84.9201 158.451 85.1491C158.614 85.3581 158.836 85.4591 159.006 85.5861C159.507 86.0231 160.015 86.3361 160.516 86.7841L110.435 110.291C102.845 108.757 95.0682 107.983 87.1372 107.983C59.0262 107.983 32.1452 117.901 11.0102 136.223L10.7892 136.452C10.3972 136.789 10.0152 137.226 9.67117 137.539L9.56517 137.667L9.05017 137.976L8.38217 138.656C8.10317 138.969 7.77217 139.201 7.49217 139.406L7.42717 139.544L7.10017 139.843C6.82417 140.076 6.53817 140.419 6.30917 140.631L6.15217 140.732L5.81517 141.065L5.48117 141.411L4.86717 142.057L4.07617 142.844L3.62617 143.282L3.12817 143.823L2.79417 144.16L2.52117 144.493L1.73017 145.267L1.62417 145.475L1.28317 145.822L0.779167 146.367C0.557167 146.609 0.384168 146.818 0.159168 147.141H0.10817C-0.16483 147.487 -0.453832 147.797 -0.784832 148.133L-1.39783 148.917L-2.01783 149.667L-2.35183 150C-2.57383 150.233 -2.74383 150.438 -2.90083 150.67L-2.96583 150.784L-3.29983 151.222L-3.46983 151.43C-3.63983 151.662 -3.79683 151.868 -4.01883 152.1L-4.31183 152.443C-4.63883 152.88 -4.91483 153.321 -5.25883 153.634V153.762C-6.68683 155.649 -8.08383 157.634 -9.42383 159.623L-9.42483 159.621ZM37.7962 0.715088C49.7592 16.5111 56.2352 38.2581 55.6762 61.9731C53.1612 62.8611 50.7072 63.8401 48.1922 64.9401L47.6772 65.1721L47.3502 65.2731C46.9582 65.5051 46.5592 65.6191 46.1812 65.8281C8.45217 83.4911 -11.2138 121.888 -13.0028 161.837C-27.5968 139.093 -32.0718 106.422 -22.6208 73.4581C-12.4548 38.0291 11.1412 11.2221 37.7962 0.715088ZM-15.9138 163.601C-28.0948 156.744 -37.9378 146.826 -43.9638 134.011C-55.8178 108.869 -49.6118 79.3001 -30.6068 56.2341L-24.7888 68.7021C-25.1838 69.9231 -25.5828 71.2521 -25.9098 72.4531C-30.8278 89.5641 -32.4028 107.641 -29.7678 125.203C-27.8218 138.664 -23.3478 152.115 -15.9138 163.601ZM-9.42483 173.428C-6.98083 213.026 13.2572 248.009 47.6802 264.114C48.0752 264.333 48.4162 264.447 48.8012 264.656L49.0872 264.794H49.1422L49.3122 264.885L49.6462 264.999C75.5832 276.475 104.635 275.146 131.188 263.778H131.294C131.805 263.569 132.255 263.34 132.749 263.132L132.978 263.018C133.421 262.785 133.874 262.58 134.372 262.449L134.651 262.23L135.99 261.561H136.161C136.665 261.352 137.108 261.019 137.609 260.797H137.78L143.703 257.587L143.99 257.487C144.326 257.272 144.659 257.052 144.988 256.827C145.217 256.736 145.438 256.598 145.66 256.504C145.936 256.295 146.229 256.161 146.501 255.952C146.774 255.848 147.006 255.616 147.279 255.515C147.552 255.414 147.844 255.168 148.12 254.96C148.342 254.845 148.618 254.637 148.843 254.523C149.119 254.29 149.405 254.189 149.678 253.957C149.957 253.853 150.182 253.644 150.458 253.52C150.752 253.298 150.973 253.069 151.249 252.975C151.522 252.766 151.805 252.632 152.077 252.42L152.814 251.868C153.086 251.754 153.369 251.545 153.642 251.313C153.928 251.199 154.153 250.99 154.378 250.862C154.651 250.654 154.927 250.425 155.271 250.206C155.492 250.115 155.714 249.883 155.939 249.769C156.227 249.53 156.528 249.306 156.839 249.099C157.06 248.891 157.272 248.79 157.493 248.558C157.837 248.339 158.113 248.107 158.451 247.901C158.614 247.669 158.836 247.578 159.006 247.464C159.507 247.027 160.015 246.677 160.516 246.239L110.435 222.733C102.845 224.29 95.0682 225.178 87.1372 225.178C59.0262 225.178 32.1452 215.126 11.0102 196.803L10.7892 196.595C10.3972 196.272 10.0152 195.831 9.67117 195.485L9.56517 195.37L9.05017 195.047L8.38217 194.401C8.10317 194.172 7.77217 193.826 7.49217 193.617L7.42717 193.503L7.10017 193.18C6.82417 192.948 6.53817 192.625 6.30917 192.393L6.15217 192.302L5.81517 191.955L5.48117 191.646L4.86717 190.963L4.07617 190.189L3.62617 189.738L3.12817 189.207L2.79417 188.86L2.52117 188.547L1.73017 187.774L1.62417 187.541L1.28317 187.218L0.779167 186.653C0.557167 186.445 0.384168 186.202 0.159168 185.903H0.10817C-0.16483 185.556 -0.453832 185.22 -0.784832 184.887L-1.39783 184.123L-2.01783 183.349L-2.35183 183.016C-2.57383 182.808 -2.74383 182.579 -2.90083 182.37L-2.96583 182.232L-3.29983 181.795L-3.46983 181.586C-3.63983 181.378 -3.79683 181.149 -4.01883 180.941L-4.31183 180.594C-4.63883 180.157 -4.91483 179.716 -5.25883 179.373V179.279C-6.68683 177.398 -8.08483 175.389 -9.42483 173.428ZM37.7962 332.297C49.7592 316.538 56.2352 294.787 55.6762 271.075C53.1612 270.184 50.7072 269.181 48.1922 268.084L47.6772 267.852L47.3502 267.751C46.9582 267.543 46.5592 267.428 46.1812 267.196C8.45217 249.53 -11.2138 211.146 -13.0028 171.315C-27.5968 193.944 -32.0718 226.605 -22.6208 259.599C-12.4538 294.996 11.1402 321.813 37.7962 332.297ZM-15.9138 169.441C-28.0948 176.277 -37.9378 186.196 -43.9638 199.007C-55.8178 224.176 -49.6118 253.745 -30.6068 276.811L-24.7888 264.33C-25.1838 263.132 -25.5828 261.79 -25.9098 260.578C-30.8278 243.481 -32.4028 225.38 -29.7678 207.842C-27.8218 194.391 -23.3478 181.025 -15.9138 169.441ZM184 166.571L182.211 169.445C182.16 169.549 182.04 169.781 181.931 169.882C169.899 188.818 152.449 203.698 131.85 212.589C120.787 217.323 116.367 218.753 104.022 217.114C90.8872 215.449 80.7162 209.612 73.5592 201.551C76.1252 202.106 78.7562 202.334 81.4422 202.334C101.507 202.334 117.774 186.337 117.774 166.571C117.774 146.715 101.507 130.71 81.4422 130.71C78.7562 130.71 76.1252 130.919 73.5592 131.498C80.7162 123.44 90.8872 117.576 104.022 115.934C116.367 114.269 120.787 115.83 131.85 120.459C152.593 129.392 170.023 144.4 181.931 163.153C182.044 163.267 182.16 163.476 182.211 163.604C182.831 164.579 183.427 165.568 184 166.571ZM114.301 166.571C114.301 184.443 99.6052 199.011 81.4422 199.011C77.4202 199.011 73.5592 198.227 69.9802 196.911C63.8862 188.103 60.8772 177.26 60.8772 166.571C60.8772 155.765 63.8902 144.959 69.9802 136.117C73.5592 134.802 77.4172 134.142 81.4422 134.142C99.6082 134.139 114.301 148.582 114.301 166.571ZM57.4112 166.571C57.4112 141.517 72.8372 116.58 103.579 112.506L87.1482 111.295C58.8662 111.295 33.0492 121.674 13.3152 138.876L13.0932 139.098C12.7082 139.317 12.3162 139.767 11.9752 140.09H11.8662L11.4232 140.541L11.0822 140.874L10.8032 141.083L10.7522 141.197C10.4762 141.429 10.1902 141.635 9.91017 141.961H9.85917L9.68917 142.193L9.51917 142.308C9.24017 142.63 8.96317 142.863 8.68717 143.095V143.186H8.62217H8.56717V143.3H8.51617L8.28817 143.532L8.06617 143.741H8.01517L7.96017 143.842H7.89517L7.84417 143.969L7.40117 144.407H7.34317V144.511H7.22717L7.07017 144.72H7.00517L6.89917 144.962H6.84417L6.77917 145.053H6.73017H6.67217V145.167H6.62417H6.55917L6.22517 145.605H6.17017L5.88417 145.941H5.83317V146.042H5.77817H5.72717V146.17H5.65517H5.60717V146.274H5.54917L5.49417 146.378H5.42917L5.37417 146.479H5.32317L5.04717 146.826L4.93117 146.917L4.59717 147.263V147.364H4.53217H4.47717V147.492H4.43017H4.37517V147.583H4.31017H4.25517V147.697H4.19717H4.14917V147.798L3.85617 148.03L3.75017 148.239L3.47417 148.572H3.40917H3.35417C3.18417 148.804 2.96217 149.127 2.79817 149.359H2.68217C2.40392 149.671 2.14446 149.999 1.90517 150.342H1.85417H1.78917V150.442H1.73817L1.34617 150.998H1.29517H1.24017V151.112H1.18917L1.11717 151.226L0.739166 151.664L0.623169 151.765L0.347168 152.101V152.215H0.292168C0.122168 152.448 -0.0448318 152.653 -0.215832 152.885H-0.26683V152.989H-0.321831H-0.379833V153.09H-0.437832H-0.488831V153.195H-0.546833V153.322H-0.594833H-0.666832V153.427H-0.717831V153.528H-0.772831C-0.942831 153.76 -1.11383 153.965 -1.27083 154.197H-1.33583V154.311H-1.38683H-1.44183V154.412H-1.49983V154.517H-1.56483C-1.89183 154.954 -2.16783 155.29 -2.45483 155.741H-2.51283C-4.43787 158.317 -6.26387 160.966 -7.98683 163.681H-7.97983C-8.25883 164.119 -8.54183 164.559 -8.76383 165.01H-8.75683H-8.82183V165.111H-8.87983L-9.15283 165.549V165.653H-9.20783V165.781H-9.27283V165.882L-9.55183 166.218H-9.60283L-9.65783 166.332H-9.72283H-9.77783H-9.88383L-9.94883 166.423H-10.0038H-10.0548H-10.1098H-10.1748V166.538H-10.1098H-10.0548H-10.0038H-9.94883L-9.88383 166.652H-9.77783H-9.72283H-9.65783L-9.60283 166.766H-9.55183L-9.27283 167.099V167.204H-9.20783V167.305H-9.15283V167.409L-8.87983 167.846H-8.82183V167.974H-8.75683C-8.53883 168.425 -8.25883 168.862 -7.98283 169.303H-7.97583C-6.26297 172.017 -4.4391 174.659 -2.50883 177.223H-2.45083C-2.16483 177.66 -1.88883 178.124 -1.56083 178.447H-1.49583V178.562H-1.43783V178.676H-1.38283H-1.33183V178.791H-1.26683C-1.10983 179.114 -0.939833 179.228 -0.768833 179.437L-0.713833 179.564H-0.66283V179.665H-0.590832H-0.542831V179.77H-0.484833V179.871H-0.43383H-0.375832V179.998H-0.317833L-0.262833 180.099H-0.21183C-0.0418301 180.308 0.129169 180.537 0.296169 180.745H0.354168V180.883L0.630169 181.193L0.746166 181.321L1.12417 181.734L1.19617 181.872H1.24717V181.963H1.30217H1.35317L1.74517 182.518H1.79617V182.609H1.86117H1.91217C2.14017 182.956 2.41617 183.289 2.68917 183.625H2.80517C2.96917 183.948 3.19017 184.18 3.36117 184.389H3.41617H3.48117L3.75717 184.725L3.86317 184.954L4.15617 185.267H4.20417H4.26217V185.395H4.31717H4.38217V185.499H4.43717H4.48817V185.614H4.53917L4.60417 185.704L4.93817 186.051L5.05417 186.142L5.33017 186.488H5.38117L5.43617 186.589H5.50117V186.717H5.55617H5.61417V186.821H5.66217H5.73417V186.926H5.78517H5.84017V187.027H5.89117L6.17717 187.36H6.23217L6.56617 187.797H6.63117H6.67917V187.911H6.73717H6.78817V188.039H6.85317H6.90817V188.14L7.01417 188.245H7.07917L7.23617 188.473H7.35217V188.578H7.41017L7.85317 189.015L7.90417 189.129H7.96917L8.02417 189.22H8.07517L8.29717 189.452L8.52517 189.661H8.57617V189.799H8.63117H8.69617V189.9C8.97217 190.108 9.24517 190.445 9.52817 190.674L9.69817 190.788L9.86817 190.996H9.91917C10.1982 191.319 10.4852 191.565 10.7612 191.76L10.8122 191.875L11.0912 192.107L11.4322 192.43L11.8752 192.867H11.9842C12.3252 193.304 12.7132 193.641 13.1022 193.977L13.3242 194.186C33.0612 211.307 58.8792 221.673 87.1572 221.673L103.588 220.448C72.8492 216.445 57.4132 191.505 57.4202 166.571H57.4112Z" fill="white" fill-opacity="0.1"/>
</g>
<defs>
<clipPath id="clip0_2728_862">
<rect width="184" height="333" fill="white"/>
</clipPath>
</defs>
</svg>

<svg xmlns="http://www.w3.org/2000/svg" width="184" height="333" fill="none"><g clip-path="url(#a)"><path fill="#fff" fill-opacity=".1" fill-rule="evenodd" d="M-9.425 159.621c2.444-39.613 22.682-74.605 57.105-90.7.395-.219.736-.323 1.121-.555l.286-.1h.055l.17-.105.334-.128c25.937-11.466 54.989-10.137 81.542 1.211h.106l1.455.68.229.104c.443.21.896.437 1.394.646l.279.128 1.339.656h.171c.504.337.947.545 1.448.774l.171.101c2.011.993 3.974 1.988 5.923 3.095l.287.21c.327.127.671.346.998.578.229.091.45.21.672.3.276.231.569.346.841.578.273.091.505.313.778.437.276.21.565.323.841.555.222.091.498.323.723.437.276.21.562.323.835.542.279.104.504.333.78.542.294.138.515.347.791.437.273.232.556.347.828.58l.737.541c.272.104.555.336.828.545.286.114.511.347.736.437q.423.372.893.68c.221.21.443.313.668.451.279.21.555.437.9.646.221.232.433.336.654.545.344.23.62.451.958.68.163.21.385.31.555.437.501.437 1.009.75 1.51 1.198l-50.081 23.507a117.4 117.4 0 0 0-23.298-2.308c-28.11 0-54.992 9.918-76.127 28.24l-.22.229c-.393.337-.775.774-1.119 1.087l-.106.128-.515.309-.668.68c-.279.313-.61.545-.89.75l-.065.138-.327.299c-.276.233-.562.576-.79.788l-.158.101-.337.333-.334.346-.614.646-.79.787-.45.438-.499.541-.334.337-.273.333-.79.774-.107.208-.34.347-.505.545a7 7 0 0 0-.62.774H.11a12 12 0 0 1-.894.992l-.613.784-.62.75-.334.333a5 5 0 0 0-.549.67l-.065.114-.334.438-.17.208a6 6 0 0 1-.549.67l-.293.343c-.327.437-.603.878-.947 1.191v.128a132 132 0 0 0-4.165 5.861zM37.796.715c11.963 15.796 18.44 37.543 17.88 61.258a110 110 0 0 0-7.484 2.967l-.515.232-.327.101c-.392.232-.79.346-1.169.555-37.729 17.663-57.395 56.06-59.184 96.009-14.594-22.744-19.069-55.415-9.618-88.379C-12.455 38.03 11.141 11.222 37.796.715m-53.71 162.886c-12.18-6.857-22.024-16.775-28.05-29.59-11.854-25.142-5.648-54.71 13.357-77.777l5.818 12.468a86 86 0 0 0-1.12 3.751c-4.919 17.111-6.494 35.188-3.859 52.75 1.946 13.461 6.42 26.912 13.854 38.398m6.49 9.827c2.443 39.598 22.681 74.581 57.104 90.686.395.219.736.333 1.121.542l.286.138h.055l.17.091.334.114c25.937 11.476 54.989 10.147 81.542-1.221h.106c.511-.209.961-.438 1.455-.646l.229-.114a6.6 6.6 0 0 1 1.394-.569l.279-.219 1.339-.669h.171c.504-.209.947-.542 1.448-.764h.171l5.923-3.21.287-.1q.504-.322.998-.66c.229-.091.45-.229.672-.323.276-.209.569-.343.841-.552.273-.104.505-.336.778-.437s.565-.347.841-.555c.222-.115.498-.323.723-.437.276-.233.562-.334.835-.566.279-.104.504-.313.78-.437.294-.222.515-.451.791-.545.273-.209.556-.343.828-.555l.737-.552c.272-.114.555-.323.828-.555.286-.114.511-.323.736-.451.273-.208.549-.437.893-.656.221-.091.443-.323.668-.437q.433-.359.9-.67c.221-.208.433-.309.654-.541.344-.219.62-.451.958-.657.163-.232.385-.323.555-.437.501-.437 1.009-.787 1.51-1.225l-50.081-23.506c-7.59 1.557-15.367 2.445-23.298 2.445-28.11 0-54.992-10.052-76.127-28.375l-.22-.208c-.393-.323-.775-.764-1.119-1.11l-.106-.115-.515-.323-.668-.646c-.279-.229-.61-.575-.89-.784l-.065-.114-.327-.323c-.276-.232-.562-.555-.79-.787l-.158-.091-.337-.347-.334-.309-.614-.683-.79-.774-.45-.451-.499-.531-.334-.347-.273-.313-.79-.773-.107-.233-.34-.323-.505-.565c-.222-.208-.395-.451-.62-.75H.11a12 12 0 0 0-.894-1.016l-.613-.764-.62-.774-.334-.333c-.222-.208-.392-.437-.549-.646l-.065-.138-.334-.437-.17-.209c-.17-.208-.327-.437-.549-.645l-.293-.347c-.327-.437-.603-.878-.947-1.221v-.094c-1.428-1.881-2.826-3.89-4.166-5.851m47.22 158.869c11.963-15.759 18.44-37.51 17.88-61.222-2.515-.891-4.969-1.894-7.484-2.991l-.515-.232-.327-.101c-.392-.208-.79-.323-1.169-.555-37.729-17.666-57.395-56.05-59.184-95.881-14.594 22.629-19.069 55.29-9.618 88.284 10.167 35.397 33.761 62.214 60.417 72.698m-53.71-162.856c-12.18 6.836-22.024 16.755-28.05 29.566-11.854 25.169-5.648 54.738 13.357 77.804l5.818-12.481a74 74 0 0 1-1.12-3.752c-4.919-17.097-6.494-35.198-3.859-52.736 1.946-13.451 6.42-26.817 13.854-38.401M184 166.571l-1.789 2.874c-.051.104-.171.336-.28.437a111.85 111.85 0 0 1-50.081 42.707c-11.063 4.734-15.483 6.164-27.828 4.525-13.135-1.665-23.306-7.502-30.463-15.563 2.566.555 5.197.783 7.883.783 20.065 0 36.332-15.997 36.332-35.763 0-19.856-16.267-35.861-36.332-35.861-2.686 0-5.317.209-7.883.788 7.157-8.058 17.328-13.922 30.463-15.564 12.345-1.665 16.765-.104 27.828 4.525 20.743 8.933 38.173 23.941 50.081 42.694.113.114.229.323.28.451q.93 1.463 1.789 2.967m-69.699 0c0 17.872-14.696 32.44-32.859 32.44-4.022 0-7.883-.784-11.462-2.1-6.094-8.808-9.103-19.651-9.103-30.34 0-10.806 3.013-21.612 9.103-30.454 3.58-1.315 7.437-1.975 11.462-1.975 18.166-.003 32.859 14.44 32.859 32.429m-56.89 0c0-25.054 15.426-49.991 46.168-54.065l-16.43-1.211c-28.283 0-54.1 10.379-73.834 27.581l-.222.222c-.385.219-.777.669-1.118.992h-.109l-.443.451-.34.333-.28.209-.05.114c-.277.232-.563.438-.843.764h-.05l-.17.232-.17.115a7 7 0 0 1-.833.787v.091h-.12v.114h-.05l-.229.232-.222.209h-.05l-.056.101h-.065l-.05.127-.444.438h-.058v.104h-.116l-.157.209h-.065l-.106.242h-.055l-.065.091h-.107v.114H6.56l-.334.438H6.17l-.286.336h-.05v.101h-.106v.128h-.121v.104H5.55l-.055.104H5.43l-.055.101h-.05l-.277.347-.116.091-.334.346v.101h-.12v.128h-.102v.091h-.12v.114H4.15v.101l-.293.232-.106.209-.276.333h-.12c-.17.232-.392.555-.556.787h-.116q-.418.468-.777.983H1.79v.1h-.05l-.393.556H1.24v.114h-.05l-.073.114-.378.438-.116.101-.276.336v.114H.292c-.17.233-.337.438-.508.67h-.05v.104H-.38v.101h-.108v.105h-.059v.127h-.12v.105h-.05v.101h-.056c-.17.232-.34.437-.498.669h-.065v.114h-.106v.101H-1.5v.105h-.065c-.327.437-.603.773-.89 1.224h-.058a127 127 0 0 0-5.474 7.94h.007c-.279.438-.562.878-.784 1.329h.007-.065v.101h-.058l-.273.438v.104h-.055v.128h-.065v.101l-.279.336h-.05l-.056.114h-.226l-.065.091h-.226v.115h.226l.065.114h.226l.055.114h.051l.28.333v.105h.064v.101h.055v.104l.273.437h.058v.128h.065c.218.451.498.888.774 1.329h.007a117 117 0 0 0 5.467 7.92h.058c.286.437.562.901.89 1.224h.065v.115h.058v.114h.106v.115h.065c.157.323.327.437.498.646l.055.127h.051v.101h.12v.105h.058v.101h.109v.127h.058l.055.101h.051c.17.209.341.438.508.646h.058v.138l.276.31.116.128.378.413.072.138h.051v.091h.106l.392.555h.051v.091h.116c.228.347.504.68.777 1.016h.116c.164.323.385.555.556.764h.12l.276.336.106.229.293.313h.106v.128h.12v.104h.106v.115h.051l.065.09.334.347.116.091.276.346h.051l.055.101h.065v.128h.113v.104h.12v.105h.106v.101h.051l.286.333h.055l.334.437h.113v.114h.109v.128h.12v.101l.106.105h.065l.157.228h.116v.105h.058l.443.437.051.114h.065l.055.091h.051l.222.232.228.209h.051v.138h.12v.101c.276.208.55.545.832.774l.17.114.17.208h.051c.28.323.566.569.842.764l.051.115.28.232.34.323.443.437h.11c.34.437.728.774 1.117 1.11l.222.209c19.737 17.121 45.555 27.487 73.833 27.487l16.431-1.225c-30.739-4.003-46.175-28.943-46.168-53.877z" clip-rule="evenodd"/></g><defs><clipPath id="a"><path fill="#fff" d="M0 0h184v333H0z"/></clipPath></defs></svg>
